!!!COM: Fanny (Mendelssohn) Hensel
!!!CNT: Deutsch
!!!TXO: Deutsch
!!!OTL: "Es rauscht das rote Laub"
!!!LYR: Geibel, Emanuel
!!!OPR: 
!!!OPS: Op. 
!!!ONM: No. 
!!!ENC: Emily Thomas
!!!YOR: Hensel: 16 Songs Fanny Mendelssohn Hensel
!!!YOR: Alfred, 1995
!!!ODT: 1846/
!!NB: Vocal melody and text encoded.
**kern	**silbe
=1	=1
*clefG2	*
*k[f#c#g#]	*
*M4/4	*
*MM[Moderato]	*
2r	.
8r	.
{8cc#	{Es
8g#	rauscht
8a	das
=2	=2
4.e#	ro-
8f#	-te
8g#	Laub
8a	zu
8cc#	mei-
8b	-nen
=3	=3
4b	Fu2s-
4a}	-sen,}
8r	.
{8a	{doch
8g#	wenn
8a	es
=4	=4
8b	wie-
8cc#	-der
8ee	gru2nt,
8dd	wo
4.b	weil'
8b#	ich
=5	=5
4cc#}	dann?}
4r	.
{4cc#	{Wo
8g#	wer-
8b	-den
=6	=6
4.a	mich
8a	die
8dd	er-
8dd	-sten
8dd	Schwal-
8a#	-ben
=7	=7
4a#	gru2s-
8b}	-sen?}
{8b	{Ach
4dd	fer-
8cc#	-ne,
8b}	|}
=8	=8
{4dd	{fer0
8cc#	-ne
8b	der
2ff#	Su2s-
=9	=9
4ee#}	-sen,}
8r	.
{8g#	{und
[2dd	nim-
=10	=10
8dd]	|
8ff#	-mer
8ee	bin
8dd	ich
8cc#	mehr
8b	|
8g#	ein
8a	|
=11	=11
2.cc#	fro-
4e#	-her
=12	=12
4f#}	Mann.}
4r	.
2r	.
=13	=13
1r	.
=14	=14
{4e	{Sonst
8a	sang
8g#	ich
4.f#	stets
8a	durch
=15	=15
8g#	Flur
8b	und
8dd	Ber-
8dd	-ges-
4dd	-hal-
8cc#	-de
8a	im
=16	=16
4dd	brau-
4a	-nen
4.cc#}	Herbst,}
{8a	{in
=17	=17
8ccn	flock'-
8ccn	-ger
8b	Win-
8a	-ters-
4g#	-zeit:
8r	.
8e	O
=18	=18
4.ee	scho2-
8cc#	-ner
4b	Fru2h-
4a}	-ling,}
=19	=19
{8a	{komm
8cc#	zu
8ee	dei-
8cc#	-nem
4b	Wal-
8a}	-de,}
{8a	{komm'
=20	=20
4ff#	bal-
4dd#	-de,
4b	bal0
4a	-de,
=21	=21
2a	bal-
2g#}	-de!}
=22	=22
{2cc#	{Nun
4b	sing'
4a}	ich:}
=23	=23
{4.g#	{Scho2-
8cc#	-ner,
4ee#	scho2-
8dd#	|
8cc#	-ner
=24	=24
4cc#	Fru2h-
8b	|
8a	-ling,
4a	blei-
8g#	|
8f#	-be
=25	=25
4e#}	weit!}
4r	.
4r	.
{4cc#	{Um-
=26	=26
2ff#	-sonst,
4r	.
4f#	um-
=27	=27
16e#q	|
4g#}	-sonst!}
4r	.
8r	.
{8cc#	{Wie
8g#	jetzt
8a	sich
=28	=28
4.e#	Heid'
8f#	und
8g#	Forst
8a	|
8cc#	ent-
8b	|
=29	=29
4b	-klei-
4a}	-den,}
8r	.
{8a	{so
8b	blu2hn
8cc#	sie
=30	=30
8ee	neu;
8dd	was
8cc#	ku2m-
8b	-mert
4a	sie
4b	mein
=31	=31
4cc#}	Lied?}
{8a	{Das
8b	|
4.cc#	Veil-
8g#	-chen
=32	=32
4a}	kommt,}
8r	.
{8a	{ich
8dd	muss
8dd	es
8dd	e-
8a#	-ben
=33	=33
4a#	lei-
8b}	-den,
{8b	{muss
4dd	wan-
8cc#	-dern
8b	|
=34	=34
4dd	und
8cc#	muss
8b	|
2ff#	schei0
=35	=35
4ee#}	den,}
8r	.
{8g#	{doch
[2dd	ach!
=36	=36
8dd]	|
8ff#	wie
8ee	soll
8dd	ich
8cc#	le-
8b	|
8g#	-ben,
8a}	|}
=37	=37
{2.cc#	{wenn
4e#	ich
=38	=38
2f#}	schied?}
2r	.
==	==
*-	*-
